icons/media/disc-x-24.svg

<svg width="24" height="24" viewBox="0 0 24 24" fill="none" xmlns="http://www.w3.org/2000/svg">
<path d="M16.2197 16.2197C16.5126 15.9268 16.9874 15.9268 17.2803 16.2197L20 18.9393L22.7197 16.2197C23.0126 15.9268 23.4874 15.9268 23.7803 16.2197C24.0732 16.5126 24.0732 16.9874 23.7803 17.2803L21.0607 20L23.7803 22.7197C24.0732 23.0126 24.0732 23.4874 23.7803 23.7803C23.4874 24.0732 23.0126 24.0732 22.7197 23.7803L20 21.0607L17.2803 23.7803C16.9874 24.0732 16.5126 24.0732 16.2197 23.7803C15.9268 23.4874 15.9268 23.0126 16.2197 22.7197L18.9393 20L16.2197 17.2803C15.9268 16.9874 15.9268 16.5126 16.2197 16.2197Z" fill="black"/>
<path fill-rule="evenodd" clip-rule="evenodd" d="M12 2.5C6.75329 2.5 2.5 6.75329 2.5 12C2.5 17.2467 6.75329 21.5 12 21.5C12.4142 21.5 12.75 21.8358 12.75 22.25C12.75 22.6642 12.4142 23 12 23C5.92487 23 1 18.0751 1 12C1 5.92487 5.92487 1 12 1C18.0751 1 23 5.92487 23 12C23 12.4142 22.6642 12.75 22.25 12.75C21.8358 12.75 21.5 12.4142 21.5 12C21.5 6.75329 17.2467 2.5 12 2.5Z" fill="black"/>
<path fill-rule="evenodd" clip-rule="evenodd" d="M12 13.5C12.8284 13.5 13.5 12.8284 13.5 12C13.5 11.1716 12.8284 10.5 12 10.5C11.1716 10.5 10.5 11.1716 10.5 12C10.5 12.8284 11.1716 13.5 12 13.5ZM12 15C13.6569 15 15 13.6569 15 12C15 10.3431 13.6569 9 12 9C10.3431 9 9 10.3431 9 12C9 13.6569 10.3431 15 12 15Z" fill="black"/>
</svg>

<svg xmlns="http://www.w3.org/2000/svg" width="24" height="24"><path d="M16.22 16.22a.75.75 0 011.06 0L20 18.94l2.72-2.72a.75.75 0 111.06 1.06L21.06 20l2.72 2.72a.75.75 0 11-1.06 1.06L20 21.06l-2.72 2.72a.75.75 0 11-1.06-1.06L18.94 20l-2.72-2.72a.75.75 0 010-1.06z"/><path fill-rule="evenodd" d="M12 2.5a9.5 9.5 0 100 19 .75.75 0 010 1.5C5.925 23 1 18.075 1 12S5.925 1 12 1s11 4.925 11 11a.75.75 0 01-1.5 0A9.5 9.5 0 0012 2.5z"/><path fill-rule="evenodd" d="M12 13.5a1.5 1.5 0 100-3 1.5 1.5 0 000 3zm0 1.5a3 3 0 100-6 3 3 0 000 6z"/></svg>
